src/assets/icons/contracts.svg

<svg width="24" height="24" viewBox="0 0 24 24" fill="none" xmlns="http://www.w3.org/2000/svg"><path d="M17.7499 2.00098C18.9407 2.00098 19.9155 2.92614 19.9947 4.09693L19.9999 4.25098V19.749C19.9999 20.9399 19.0747 21.9147 17.9039 21.9939L17.7499 21.999H6.25C5.05914 21.999 4.08436 21.0739 4.00519 19.9031L4 19.749V4.25098C4 3.06011 4.92516 2.08533 6.09595 2.00617L6.25 2.00098H17.7499ZM17.7499 3.50098H6.25C5.8703 3.50098 5.55651 3.78313 5.50685 4.14921L5.5 4.25098V19.749C5.5 20.1287 5.78215 20.4425 6.14823 20.4922L6.25 20.499H17.7499C18.1296 20.499 18.4434 20.2169 18.493 19.8508L18.4999 19.749V4.25098C18.4999 3.87128 18.2177 3.55749 17.8516 3.50782L17.7499 3.50098Z" fill="currentColor"></path><path d="M6.99994 15.75C6.99994 15.3358 7.33572 15 7.74994 15H16.2499C16.6642 15 16.9999 15.3358 16.9999 15.75C16.9999 16.1642 16.6642 16.5 16.2499 16.5H7.74994C7.33572 16.5 6.99994 16.1642 6.99994 15.75Z" fill="currentColor"></path><path d="M6.99994 7.75001C6.99994 7.3358 7.33572 7.00001 7.74994 7.00001H16.2499C16.6642 7.00001 16.9999 7.3358 16.9999 7.75001C16.9999 8.16422 16.6642 8.50001 16.2499 8.50001H7.74994C7.33572 8.50001 6.99994 8.16422 6.99994 7.75001Z" fill="currentColor"></path><path d="M6.99994 11.75C6.99994 11.3358 7.33572 11 7.74994 11H16.2499C16.6642 11 16.9999 11.3358 16.9999 11.75C16.9999 12.1642 16.6642 12.5 16.2499 12.5H7.74994C7.33572 12.5 6.99994 12.1642 6.99994 11.75Z" fill="currentColor"></path></svg>

<svg xmlns="http://www.w3.org/2000/svg" width="24" height="24" fill="none"><path fill="currentColor" d="M17.75 2.001a2.25 2.25 0 0 1 2.245 2.096L20 4.25v15.498a2.25 2.25 0 0 1-2.096 2.245l-.154.005H6.25a2.25 2.25 0 0 1-2.245-2.096L4 19.75V4.251a2.25 2.25 0 0 1 2.096-2.245l.154-.005h11.5Zm0 1.5H6.25a.75.75 0 0 0-.743.648l-.007.102v15.498c0 .38.282.694.648.743l.102.007h11.5a.75.75 0 0 0 .743-.648l.007-.102V4.251a.75.75 0 0 0-.648-.743L17.75 3.5Z"/><path fill="currentColor" d="M7 15.75a.75.75 0 0 1 .75-.75h8.5a.75.75 0 1 1 0 1.5h-8.5a.75.75 0 0 1-.75-.75ZM7 7.75A.75.75 0 0 1 7.75 7h8.5a.75.75 0 1 1 0 1.5h-8.5A.75.75 0 0 1 7 7.75ZM7 11.75a.75.75 0 0 1 .75-.75h8.5a.75.75 0 1 1 0 1.5h-8.5a.75.75 0 0 1-.75-.75Z"/></svg>
